X: 2
T: The Enchanted Lady
R: reel
M: 4/4
L: 1/8
K: Dmaj
|:A3G FAdB|AGFD EA A2|A3G FAdB|ABde fddB|
A3G FAdB|AGFD EA A2|A3G FAdB|ABde fdde||
|:f2df efdf|afdf edBd|f2df efdA|(3Bcd AG FDDe|
f2df efdf|afdf edBd|A3B dfbf|afeg fddB||


Tune 1522	Setting 1522

